**harm	**harte	**timestamp	**phrase	**leadinstrument	**kern
*M4/4	*M4/4	*	*	*	*
*C:	*C:	*	*	*	*C:
1r;	N	0	.	r	1r;
=1	=1	=1	=1	=1	=1
*>A_intro	*>A_intro	*>A_intro	*>A_intro	*>A_intro	*>A_intro
1I	C:maj	0.441	newline	voice	1C 1e 1g
=2	=2	=2	=2	=2	=2
1vi	A:min	3.828	.	voice	1A 1cc 1ee
=3	=3	=3	=3	=3	=3
1IV	F:maj	7.214	.	voice	1F 1a 1cc
=4	=4	=4	=4	=4	=4
1V	G:maj	10.601	.	voice	1G 1b 1dd
=5	=5	=5	=5	=5	=5
1I	C:maj	13.987	newline	strings	1C 1e 1g
=6	=6	=6	=6	=6	=6
2V	G:sus4	17.191	.	strings	2G 2b 2dd
2V	G:maj	18.793	.	strings	2G 2b 2dd
=7	=7	=7	=7	=7	=7
*>B_verse	*>B_verse	*>B_verse	*>B_verse	*>B_verse	*>B_verse
1I	C:maj	20.395	newline	voice	1C 1e 1g
=8	=8	=8	=8	=8	=8
1vi	A:min	23.633	.	voice	1A 1cc 1ee
=9	=9	=9	=9	=9	=9
1IV	F:maj	26.87	.	voice	1F 1a 1cc
=10	=10	=10	=10	=10	=10
1V	G:maj	30.108	.	voice	1G 1b 1dd
=11	=11	=11	=11	=11	=11
1IV	F:maj	33.345	newline	voice	1F 1a 1cc
=12	=12	=12	=12	=12	=12
1V	G:maj	36.526	.	voice	1G 1b 1dd
=13	=13	=13	=13	=13	=13
1I	C:maj	39.706	.	voice	1C 1e 1g
=14	=14	=14	=14	=14	=14
1IV	F:maj	42.887	.	voice	1F 1a 1cc
=15	=15	=15	=15	=15	=15
1V	G:maj	46.068	newline	voice	1G 1b 1dd
=16	=16	=16	=16	=16	=16
1IV	F:maj	49.227	.	voice	1F 1a 1cc
=17	=17	=17	=17	=17	=17
2I	C:maj	52.387	.	voice	2C 2e 2g
2IV	F:maj	53.967	.	voice	2F 2a 2cc
=18	=18	=18	=18	=18	=18
2I	C:maj	55.546	.	voice	2C 2e 2g
2-VIm7	A-:7	57.126	.	voice	2A- 2cc 2ee- 2gg
=19	=19	=19	=19	=19	=19
*>B_verse	*>B_verse	*>B_verse	*>B_verse	*>B_verse	*>B_verse
*D-:	*D-:	*	*	*	*D-:
1I	D-:maj	58.706	newline	voice	1D- 1f 1a-
=20	=20	=20	=20	=20	=20
1vi	B-:min	61.908	.	voice	1B- 1dd- 1ff
=21	=21	=21	=21	=21	=21
1IV	G-:maj	65.111	.	voice	1G- 1b- 1dd-
=22	=22	=22	=22	=22	=22
1V	A-:maj	68.313	.	voice	1A- 1cc 1ee-
=23	=23	=23	=23	=23	=23
1IV	G-:maj	71.515	newline	voice	1G- 1b- 1dd-
=24	=24	=24	=24	=24	=24
1V	A-:maj	74.688	.	voice	1A- 1cc 1ee-
=25	=25	=25	=25	=25	=25
1I	D-:maj	77.861	.	voice	1D- 1f 1a-
=26	=26	=26	=26	=26	=26
1IV	G-:maj	81.034	.	voice	1G- 1b- 1dd-
=27	=27	=27	=27	=27	=27
1V	A-:maj	84.207	newline	voice	1A- 1cc 1ee-
=28	=28	=28	=28	=28	=28
1IV	G-:maj	87.374	.	voice	1G- 1b- 1dd-
=29	=29	=29	=29	=29	=29
2I	D-:maj	90.542	.	voice	2D- 2f 2a-
2IV	G-:maj	92.126	.	voice	2G- 2b- 2dd-
=30	=30	=30	=30	=30	=30
2I	D-:maj	93.71	.	voice	2D- 2f 2a-
2-VIm7	A:7	95.293	.	voice	2B-- 2dd- 2ff- 2aa-
=31	=31	=31	=31	=31	=31
*>B2_verse	*>B2_verse	*>B2_verse	*>B2_verse	*>B2_verse	*>B2_verse
*D:	*D:	*	*	*	*D:
1I	D:maj	96.877	newline	voice	1D 1f# 1a
=32	=32	=32	=32	=32	=32
1vi	B:min	100.067	.	voice	1B 1dd 1ff#
=33	=33	=33	=33	=33	=33
1IV	G:maj	103.257	.	voice	1G 1b 1dd
=34	=34	=34	=34	=34	=34
1V	A:maj	106.446	.	voice	1A 1cc# 1ee
=35	=35	=35	=35	=35	=35
1IV	G:maj	109.636	newline	voice	1G 1b 1dd
=36	=36	=36	=36	=36	=36
1V	A:maj	112.82	.	voice	1A 1cc# 1ee
=37	=37	=37	=37	=37	=37
1I	D:maj	116.003	.	voice	1D 1f# 1a
=38	=38	=38	=38	=38	=38
1IV	G:maj	119.186	.	voice	1G 1b 1dd
=39	=39	=39	=39	=39	=39
1V	A:maj	122.369	newline	voice	1A 1cc# 1ee
=40	=40	=40	=40	=40	=40
1IV	G:maj	125.529	.	voice	1G 1b 1dd
=41	=41	=41	=41	=41	=41
2I	D:maj	128.689	.	voice	2D 2f# 2a
2IV	G:maj	130.269	.	voice	2G 2b 2dd
=42	=42	=42	=42	=42	=42
2I	D:maj	131.849	.	voice	2D 2f# 2a
2IV	G:maj	133.429	.	voice	2G 2b 2dd
=43	=43	=43	=43	=43	=43
1I	D:maj	135.009	newline	strings	1D 1f# 1a
=44	=44	=44	=44	=44	=44
1I	D:maj	138.141	.	strings	1D 1f# 1a
1r;	N	144.405	.	r	1r;
1r;	N	147.383	.	r	1r;
*-	*-	*-	*-	*-	*-
!!!OTL: It's Only Make Believe
!!!COC: Glen Campbell
!!!BillboardChartDate: 1970/09/05
!!!BillboardPeak: 10
!!!BillboardWeeksOnChart: 12
!!!SampleTargetRank: 83
!!!SampleActualRank: 82
!!!SampleID#: 0623
!!!RDF**harmony: **recip + pitch class of root + harmonic quality
!!!RDF**harte: Chris Harte's syntax, used by MIREX
!!!RDF**phrase: newline = linebreak in original McGill transcription
!!!RDF**timestamp: McGill audio timestamp in seconds
!!!RDF**leadinstrument: original McGill primary instrumentation annotation
!!!RDT: 2017/01/12/
!!!ENC: Nathaniel Condit-Schultz
!!!EST: Awating manual error checking and editing.
